src/lib/packages/icons/src/assets/line/bank.svg

<svg width="24" height="24" viewBox="0 0 24 24" fill="none" xmlns="http://www.w3.org/2000/svg">
<path d="M21 20.2499H20.75V18.9999C20.75 17.9199 20.079 17.2499 19 17.2499H18.75V11.7499H19C20.079 11.7499 20.75 11.0799 20.75 9.9999V7.44082C20.75 6.77382 20.379 6.17388 19.782 5.87588L13.006 2.48794C12.375 2.17394 11.623 2.17394 10.994 2.48794L4.21802 5.87588C3.62102 6.17388 3.25 6.77382 3.25 7.44082V9.9999C3.25 11.0799 3.921 11.7499 5 11.7499H5.25V17.2499H5C3.921 17.2499 3.25 17.9199 3.25 18.9999V20.2499H3C2.586 20.2499 2.25 20.5859 2.25 20.9999C2.25 21.4139 2.586 21.7499 3 21.7499H21C21.414 21.7499 21.75 21.4139 21.75 20.9999C21.75 20.5859 21.414 20.2499 21 20.2499ZM17.25 17.2499H14.75V11.7499H17.25V17.2499ZM10.75 17.2499V11.7499H13.25V17.2499H10.75ZM4.78406 10.2228C4.78306 10.2228 4.78306 10.2228 4.78406 10.2228C4.77906 10.2148 4.75 10.1559 4.75 9.9999V7.44082C4.75 7.34582 4.80294 7.25995 4.88794 7.21695L11.6639 3.82901C11.8769 3.72301 12.1231 3.72301 12.3361 3.82901L19.1121 7.21695C19.1971 7.25894 19.25 7.34482 19.25 7.44082V9.9999C19.25 10.1559 19.221 10.2139 19.223 10.2169C19.215 10.2209 19.156 10.2499 19 10.2499H5C4.849 10.2499 4.78906 10.2228 4.78406 10.2228ZM6.75 11.7499H9.25V17.2499H6.75V11.7499ZM4.75 18.9999C4.75 18.8439 4.77898 18.7859 4.77698 18.7829C4.78498 18.7789 4.844 18.7499 5 18.7499H19C19.182 18.7499 19.218 18.777 19.217 18.777C19.221 18.786 19.25 18.8439 19.25 18.9999V20.2499H4.75V18.9999ZM10.75 6.9999C10.75 6.3099 11.31 5.7499 12 5.7499C12.69 5.7499 13.25 6.3099 13.25 6.9999C13.25 7.6899 12.69 8.2499 12 8.2499C11.31 8.2499 10.75 7.6899 10.75 6.9999Z" fill="currentColor"/>
</svg>

<svg xmlns="http://www.w3.org/2000/svg" width="24" height="24" fill="none"><path fill="currentColor" d="M21 20.25h-.25V19c0-1.08-.671-1.75-1.75-1.75h-.25v-5.5H19c1.079 0 1.75-.67 1.75-1.75V7.44a1.74 1.74 0 0 0-.968-1.564l-6.776-3.388a2.266 2.266 0 0 0-2.012 0L4.218 5.876A1.74 1.74 0 0 0 3.25 7.44V10c0 1.08.671 1.75 1.75 1.75h.25v5.5H5c-1.079 0-1.75.67-1.75 1.75v1.25H3a.75.75 0 0 0 0 1.5h18a.75.75 0 0 0 0-1.5Zm-3.75-3h-2.5v-5.5h2.5v5.5Zm-6.5 0v-5.5h2.5v5.5h-2.5Zm-5.966-7.027c-.005-.008-.034-.067-.034-.223V7.44a.25.25 0 0 1 .138-.223l6.776-3.388a.75.75 0 0 1 .672 0l6.776 3.388a.248.248 0 0 1 .138.224V10c0 .156-.029.214-.027.217a.513.513 0 0 1-.223.033H5c-.151 0-.21-.027-.216-.027ZM6.75 11.75h2.5v5.5h-2.5v-5.5Zm-2 7.25c0-.156.029-.214.027-.217A.513.513 0 0 1 5 18.75h14c.182 0 .218.027.217.027.004.009.033.067.033.223v1.25H4.75V19Zm6-12a1.25 1.25 0 1 1 2.5 0 1.25 1.25 0 0 1-2.5 0Z"/></svg>
